X:1
T:Savior of the Nations, Come
T:Tune: Enchiridia, Erfurt, 1524; harm. Seth Calvisius, 1594 Text under copyright; for copyrighted material see Psalter Hymnal 336
T:77 77 NUN KOMM DER HEIDEN HEILAND www.hymnary.org/text/savior_of_the_nations_come_show_yourself
T:Savior of the Nations, Come
T:This tune is in the public domain. You may freely use this score for personal and congregational worship. If you reproduce the score, please credit Hymnary.org as the source. 
T:This tune is in the public domain. You may freely use this score for personal and congregational worship. If you reproduce the score, please credit Hymnary.org as the source. 
Z:This tune is in the public domain. You may freely use this score for personal and congregational worship. If you reproduce the score, please credit Hymnary.org as the source.
%%score ( 1 2 ) ( 3 4 )
L:1/8
M:4/4
K:Bb
V:1 treble nm="SOPRANO ALTO" snm="S. A."
V:2 treble 
V:3 bass nm="TENOR BASS" snm="T. B."
V:4 bass 
V:1
 G2 G2 F2 B2 | AG A2 G4 | G2 B2 c2 B2 | c2 d2 B4 |1 B2 c2 d2 B2 | c2 BA G4 | G2 G2 F2 B2 | %7
 AG A2 G4 |] %8
V:2
 D2 D2 D2 F2 | FD D2 D4 | G2 F2 G2 G2 | G2 ^F2 G4 |1 D2 F2 F2 F2 | A2 GF G4 | E2 D2 D2 F2 | %7
 FD D2 D4 |] %8
V:3
 G,2 B,2 A,2 D2 | CB, A,2 B,4 | B,2 D2 E2 D2 | C2 A,2 D4 |1 G,2 A,2 B,2 D2 | F2 D2 B,4 | %6
 C2 B,2 A,2 D2 | CB, A,2 =B,4 |] %8
V:4
 G,2 F,2 D,2 B,,2 | F,G, D,2 G,,4 | E,2 D,2 C,2 G,,2 | E,2 D,2 G,,4 |1 G,2 F,2 B,,2 B,2 | %5
 F,2 G,D, E,4 | C,2 G,2 D,2 B,,2 | F,G, D,2 G,,4 |] %8

